src/icons/svg/FolderShared.svg

<svg xmlns="http://www.w3.org/2000/svg" width="24" height="24" viewBox="0 0 24 24"><path fill="none" d="M0 0h24v24H0V0z"/><path d="M20 6h-8l-2-2H4c-1.1 0-1.99.9-1.99 2L2 18c0 1.1.9 2 2 2h16c1.1 0 2-.9 2-2V8c0-1.1-.9-2-2-2zm0 12H4V6h5.17l2 2H20v10zm-5-5c1.1 0 2-.9 2-2s-.9-2-2-2-2 .9-2 2 .9 2 2 2zm-4 4h8v-1c0-1.33-2.67-2-4-2s-4 .67-4 2v1z"/></svg>

<svg width="24" height="24" viewBox="0 0 24 24" fill="none" xmlns="http://www.w3.org/2000/svg">
<path d="M20 6H12L10 4H4C2.9 4 2.01 4.9 2.01 6L2 18C2 19.1 2.9 20 4 20H20C21.1 20 22 19.1 22 18V8C22 6.9 21.1 6 20 6ZM20 18H4V6H9.17L11.17 8H20V18Z" fill="#1C2125"/>
<path d="M15 13C16.1 13 17 12.1 17 11C17 9.9 16.1 9 15 9C13.9 9 13 9.9 13 11C13 12.1 13.9 13 15 13Z" fill="#1C2125"/>
<path d="M11 17H19V16C19 14.67 16.33 14 15 14C13.67 14 11 14.67 11 16V17Z" fill="#1C2125"/>
</svg>
